dist/landing-a/assets/images/paint.svg

<svg width="160" height="198" viewBox="0 0 160 198" fill="none" xmlns="http://www.w3.org/2000/svg">
<path d="M4.16797 83.0003C4.16797 144.212 53.7897 193.834 115.001 193.834C133.365 193.834 148.251 178.947 148.251 160.584V155.042C148.251 149.895 148.251 147.321 148.536 145.16C150.5 130.24 162.241 118.499 177.161 116.535C179.322 116.25 181.896 116.25 187.043 116.25H192.585C210.948 116.25 225.835 101.364 225.835 83.0003C225.835 21.7888 176.213 -27.833 115.001 -27.833C53.7897 -27.833 4.16797 21.7888 4.16797 83.0003Z" stroke="black" stroke-width="8" stroke-linecap="round" stroke-linejoin="round"/>
<path d="M59.5846 94.0837C65.7058 94.0837 70.668 89.1215 70.668 83.0003C70.668 76.8792 65.7058 71.917 59.5846 71.917C53.4635 71.917 48.5013 76.8792 48.5013 83.0003C48.5013 89.1215 53.4635 94.0837 59.5846 94.0837Z" stroke="black" stroke-width="8" stroke-linecap="round" stroke-linejoin="round"/>
<path d="M159.335 49.7503C165.456 49.7503 170.418 44.7881 170.418 38.667C170.418 32.5458 165.456 27.5837 159.335 27.5837C153.213 27.5837 148.251 32.5458 148.251 38.667C148.251 44.7881 153.213 49.7503 159.335 49.7503Z" stroke="black" stroke-width="8" stroke-linecap="round" stroke-linejoin="round"/>
<path d="M92.8346 38.667C98.9558 38.667 103.918 33.7048 103.918 27.5837C103.918 21.4625 98.9558 16.5003 92.8346 16.5003C86.7135 16.5003 81.7513 21.4625 81.7513 27.5837C81.7513 33.7048 86.7135 38.667 92.8346 38.667Z" stroke="black" stroke-width="8" stroke-linecap="round" stroke-linejoin="round"/>
</svg>

<svg width="160" height="198" fill="none" xmlns="http://www.w3.org/2000/svg"><path d="M4.168 83c0 61.212 49.622 110.834 110.833 110.834 18.364 0 33.25-14.887 33.25-33.25v-5.542c0-5.147 0-7.721.285-9.882 1.964-14.92 13.705-26.661 28.625-28.625 2.161-.285 4.735-.285 9.882-.285h5.542c18.363 0 33.25-14.886 33.25-33.25 0-61.211-49.622-110.833-110.834-110.833C53.79-27.833 4.168 21.789 4.168 83z" stroke="#000" stroke-width="8" stroke-linecap="round" stroke-linejoin="round"/><path d="M59.585 94.084c6.12 0 11.083-4.963 11.083-11.084 0-6.12-4.962-11.083-11.083-11.083S48.5 76.879 48.5 83s4.963 11.084 11.084 11.084zm99.75-44.334c6.121 0 11.083-4.962 11.083-11.083s-4.962-11.083-11.083-11.083c-6.122 0-11.084 4.962-11.084 11.083s4.962 11.083 11.084 11.083zm-66.5-11.083c6.12 0 11.083-4.962 11.083-11.083 0-6.122-4.962-11.084-11.083-11.084S81.75 21.462 81.75 27.584c0 6.12 4.962 11.083 11.084 11.083z" stroke="#000" stroke-width="8" stroke-linecap="round" stroke-linejoin="round"/></svg>
